X: 234
T: Farinellis Maggot
%R: reel
B: "The Compleat Country Dancing-Master" printed by John Walsh, London ca. 1740
S: 6: CCDM2 http://imslp.org/wiki/The_Compleat_Country_Dancing-Master_(Various) V.2 #1 (21)
Z: 2013 John Chambers <jc:trillian.mit.edu>
M: C|
L: 1/16
K: A
% - - - - - - - - - - - - - - - - - - - - - - - - -
|: A2e2 e4   cde2 e4   | ABcd e2dc B4 E4 |    A2e2 e2e2 edef e2fe | fefe (fga)c B4 A4 :|
|: G3A  B2c2 ABcd edcB | ABcd e2c2 B4 E4 | "^#"G3A B2c2 ABcd edcB | ABcd  cdef  B4 A4 :|
|: c2e2 fefe B2e2 fefe | cde2 e2c2 B4 E4 |    c2e2 fefe B2e2 fefe | cefe  agac  B4 A4 :|
% - - - - - - - - - - - - - - - - - - - - - - - - -
%%center Each Strain twice.
%%begintext align
%% The 1st Cu. set and cast off .| the 2d Cu. do the same :| The 1st
%% Man and 2d Wo. meet and give A little Iump [sic] the 2d Man and
%% 1st Wo. do the same and turn single all four .| The 1st Cu. cross
%% over and figure in between the 3d Cu. into the 2d Cu. Place :|
%%endtext
%%sep 1 8 500

%%sep 1 1 500
%%sep 1 1 500
